assets/dataai/original.svg

<svg viewBox="0 0 24 24" xmlns="http://www.w3.org/2000/svg"><path d="m8.12 1.744-8.105 8.265-.015.014 11.986 12.219.014.015 11.986-12.22.014-.014-8.115-8.273-.006-.006zm1.207 1.02h5.326l-2.663 2.646zm3.422 3.43 3.027-3.053 6.305 6.359h-6.054zm-4.538-3.054 3.04 3.072-3.252 3.288h-6.08zm.62 6.977 3.169-3.241 3.169 3.242-3.169 9.724zm7.328.402h5.862l-8.793 9.005zm-14.24 0h5.915l2.958 9.006z"/></svg>

<svg xmlns="http://www.w3.org/2000/svg" viewBox="0 0 24 24"><title>data.ai</title><path d="M8.12 1.744.015 10.009 0 10.023l11.986 12.219.014.015 11.986-12.22.014-.014-8.115-8.273-.006-.006Zm1.207 1.02h5.326L11.99 5.41zm3.422 3.43 3.027-3.053L22.081 9.5h-6.054ZM8.211 3.14l3.04 3.072L7.999 9.5h-6.08Zm.62 6.977L12 6.876l3.169 3.242L12 19.842zm7.328.402h5.862l-8.793 9.005Zm-14.24 0h5.915l2.958 9.006Z"/></svg>
